X:322060
T: Tam Lin   [Dm/Am]
T: The Howling Wind
T: The Glasgow Reel
C: Davey Arthur
B: 
H:
O:Kevin Fraser
Z:Kevin Fraser
Q:1/2=105
K:HP
M:2/2
L:1/8
R:Reel
U: R = ///
U: r = //
U: V = !accent!
V:M gstem=up stem=down name="Melody" sname="Melody" 
V:H gstem=up stem=down name="Harmony" sname="Harmony"
V:C gstem=up stem=down name="C-Harmony" sname="C-Harmony"
V:S gstem=up stem=down dyn=up stafflines=1 clef=perc middle=G name="Snare" sname="Snare" sname="Snare"
V:B gstem=up stem=down clef=none dyn=up name="Bass" sname="Bass"
V:T gstem=up stem=down clef=none dyn=up name="Tenor" sname="Tenor"
V:BB gstem=up stem=down name="Brass Bass" sname="ABCD-C" transpose=-1  octave=-1 clef=bass
V:BC gstem=up stem=down name="Brass Chord" sname="ABCD-D" transpose=-1
V:BD gstem=up stem=down name="Brass Chord 2" sname="ABCD-B" transpose=-1
V:P gstem=up stem=down name="Piano" octave=-1
I:MIDI=program 110
%%MIDI gracedivider 4
% %score {M S B T}
%%MIDI program 109 #bagpipes
%%MIDI vol 100
[V:M][K:Dm]  B, \
| "Dm"~A,2 DA, FA,DA, | "Bb"~B,2 DB, FB,DB, | "C"~C2 EC GCEC | "Dm"FEDC "C"DCA,G, |
| "Dm"~A,2 DA, FA,DA, | "Bb"~B,2 DB, FB,DB, | "C"~C2 EC GCEC | "C"FEDC "Dm"D3 :|
|: (^c \
| "Dm"d)cAG F2D(^c | d)cAG F2D(=B | "C"~c2)Gc EcG(=B | ~c2)Gc EcG(^c |
| "Dm"d)cAG F2D(^c | d)cAG F2DC | "Bb"B,A,B,C DCDE | "C"FEDC "Dm"D3 |]
[K:Am](F \
| "Am"~E2) AE cEAE | "F"~F2 AF cFAF | "G"~G2 BG dGBd | "Am"cBAG "G"AGED |
| "Am"~E2 AE cEAE | "F"~F2 AF cFAF | "G"~G2 BG dGBd | "G"cBAG "Am"A3 :|
|: (^g \
| "Am"a)ged c2A(^g | a)ged c2A(^f | "G"~g2)dg Bgdg | ~g2dg Bgd(^g |
| "Am"a)ged c2A(^g | a)ged c2AG | "F"FEFG AGAB | "G"cBAG "Am"A3 :|

